src/assets/outline/ArrowDown2.svg

<svg width="24" height="24" viewBox="0 0 24 24"  xmlns="http://www.w3.org/2000/svg">
<path d="M12 22.75C6.07 22.75 1.25 17.93 1.25 12C1.25 6.07 6.07 1.25 12 1.25C17.93 1.25 22.75 6.07 22.75 12C22.75 17.93 17.93 22.75 12 22.75ZM12 2.75C6.9 2.75 2.75 6.9 2.75 12C2.75 17.1 6.9 21.25 12 21.25C17.1 21.25 21.25 17.1 21.25 12C21.25 6.9 17.1 2.75 12 2.75Z" />
<path d="M12 15.25C11.59 15.25 11.25 14.91 11.25 14.5V8.5C11.25 8.09 11.59 7.75 12 7.75C12.41 7.75 12.75 8.09 12.75 8.5V14.5C12.75 14.91 12.41 15.25 12 15.25Z" />
<path d="M11.9999 16.2499C11.8099 16.2499 11.6199 16.1799 11.4699 16.0299L8.46994 13.0299C8.17994 12.7399 8.17994 12.2599 8.46994 11.9699C8.75994 11.6799 9.23994 11.6799 9.52994 11.9699L11.9999 14.4399L14.4699 11.9699C14.7599 11.6799 15.2399 11.6799 15.5299 11.9699C15.8199 12.2599 15.8199 12.7399 15.5299 13.0299L12.5299 16.0299C12.3799 16.1799 12.1899 16.2499 11.9999 16.2499Z" />
</svg>

<?xml version="1.0" encoding="UTF-8"?>
<svg width="24" height="24" viewBox="0 0 24 24" xmlns="http://www.w3.org/2000/svg">
 <path d="m12 22.75c-5.93 0-10.75-4.82-10.75-10.75s4.82-10.75 10.75-10.75 10.75 4.82 10.75 10.75-4.82 10.75-10.75 10.75zm0-20c-5.1 0-9.25 4.15-9.25 9.25s4.15 9.25 9.25 9.25 9.25-4.15 9.25-9.25-4.15-9.25-9.25-9.25z"/>
 <path d="m12 15.25c-0.41 0-0.75-0.34-0.75-0.75v-6c0-0.41 0.34-0.75 0.75-0.75s0.75 0.34 0.75 0.75v6c0 0.41-0.34 0.75-0.75 0.75z"/>
 <path d="m12 16.25c-0.19 0-0.38-0.07-0.53-0.22l-3-3c-0.29-0.29-0.29-0.77 0-1.06s0.77-0.29 1.06 0l2.47 2.47 2.47-2.47c0.29-0.29 0.77-0.29 1.06 0s0.29 0.77 0 1.06l-3 3c-0.15 0.15-0.34 0.22-0.53 0.22z"/>
</svg>
